rospo-light/symbolic/apps/preferences-desktop-default-applications-symbolic.svg

<svg height="16" width="16" xmlns="http://www.w3.org/2000/svg"><path d="m8 0c-4.432 0-8 3.568-8 8s3.568 8 8 8 8-3.568 8-8-3.568-8-8-8zm0 1.6992188 1.5898438 4.3339843 4.4101562.25-3.429688 2.9296875 1.136719 4.4863284-3.707031-2.523438-3.7070312 2.523438 1.1367187-4.4863284-3.4296875-2.9296875 4.4101562-.25z" fill="#5c616c"/></svg>

<svg xmlns="http://www.w3.org/2000/svg" width="16" height="16" version="1">
 <path style="fill:#5c616c" d="M 8 0 C 3.568 0 0 3.568 0 8 C 0 12.432 3.568 16 8 16 C 12.432 16 16 12.432 16 8 C 16 3.568 12.432 0 8 0 z M 8 1.6992188 L 9.5898438 6.0332031 L 14 6.2832031 L 10.570312 9.2128906 L 11.707031 13.699219 L 8 11.175781 L 4.2929688 13.699219 L 5.4296875 9.2128906 L 2 6.2832031 L 6.4101562 6.0332031 L 8 1.6992188 z"/>
</svg>
